icons/solid/file-report.svg

<svg width="24" height="24" viewBox="0 0 24 24" fill="none" xmlns="http://www.w3.org/2000/svg">
<path fill-rule="evenodd" clip-rule="evenodd" d="M3 19C3 20.6569 4.34315 22 6 22H18C19.6569 22 21 20.6569 21 19V8.82843C21 8.03278 20.6839 7.26972 20.1213 6.70711L16.2929 2.87868C15.7303 2.31607 14.9672 2 14.1716 2H6C4.34315 2 3 3.34315 3 5V19ZM17 11C17 10.4477 16.5523 10 16 10C15.4477 10 15 10.4477 15 11V17C15 17.5523 15.4477 18 16 18C16.5523 18 17 17.5523 17 17V11ZM13 13C13 12.4477 12.5523 12 12 12C11.4477 12 11 12.4477 11 13V17C11 17.5523 11.4477 18 12 18C12.5523 18 13 17.5523 13 17V13ZM8.99999 14.995C8.99723 14.4427 8.54728 13.9973 7.995 14C7.44273 14.0028 6.99725 14.4527 7.00001 15.005L7.01001 17.005C7.01277 17.5573 7.46271 18.0027 8.01499 18C8.56727 17.9972 9.01274 17.5473 9.00998 16.995L8.99999 14.995Z" fill="currentColor"/>
</svg>

<svg width="24" height="24" fill="none" xmlns="http://www.w3.org/2000/svg"><path fill-rule="evenodd" clip-rule="evenodd" d="M3 19a3 3 0 003 3h12a3 3 0 003-3V8.828a3 3 0 00-.879-2.12l-3.828-3.83A3 3 0 0014.172 2H6a3 3 0 00-3 3v14zm14-8a1 1 0 10-2 0v6a1 1 0 102 0v-6zm-4 2a1 1 0 10-2 0v4a1 1 0 102 0v-4zm-4 1.995a1 1 0 00-2 .01l.01 2a1 1 0 002-.01l-.01-2z" fill="currentColor"/></svg>
